X: 41385
T: Tweedly Park
R: jig
M: 6/8
K: Fmajor
|:c|"F"fef cAF|"Bb"d2d "F"c3|"Dm"df^f "Gm"gab|"Dm"agf "C"edc|
"F"fef cAF|"Bb"d2d "F"c3|"Bb"def "C"gfe|1 ."C"g2f "F"f2:|2 ."F"f3 f2||
|:g|"F"aba "C"gec|"Dm"fgf "Am"ecA|"Bb"d_ed "F"cAF|"Gm"BGG "C"GAB|
"F"cff "C"egg|"F"faa "Gm"gbb|"Dm"agf "C"cde|1 ."C7"gbg "F"f2:|2 . "F"f3 f2||

